!!!COM: Nikiprowetzky, Tolia
!!!CDT: 1916-1997
!!!OTL: National Anthem, Mauritania
!!!ENC: Davis, Matthew J.
!!Melody line only, (there are no words for this anthem)
**kern
*clefG2
*k[]
*a:
*M2/4
=1-
8cc
8b
==2
!Coda Symbol
[4a
16a]
16g#
16e
16g
=3
8a
16r
16ee
8dd#
8b
=4
[4a
16a]
16g#
16e
16g
=5
4b
8cc
8b
=6
[4a
16a]
16g#
16e
16g
=7
8a
16r
16ee
8dd#
8b
=8
4b
16a
16g#
16e
16g
=9
8a
16r
16ee
8dd#
8b
=10
4b
16a
16g#
16e
16g
=11
8b
16r
16ee
8dd#
8b
=12
[4a
16a]
16g#
16e
16g
=13
8a
8r
8cc
8b
=14
[4a
16a]
16g#
16f#
16g#
=15
4a
8.b
16cc
=16
[4a
16a]
16g#
16f#
16g#
=17
8.b
16ee
8dd#
8b
=18
[4a
16a]
16g#
16e
16g
=19
4a
8.b
16cc
=20
[4a
16a]
16g#
16e
16g#
=21
8a
8r
16ee
16r
16r
32dd#
32b
=22
[4a
16a]
16g#
16e
16g
=23
8a
8r
16ee
16r
16r
32dd#
32b
=24
[4a
16a]
16g#
16e
16g#
=25
8.b
16ee
16dd#
16ee
8b
=26
[4a
16a]
16g#
16e
16g#
=17
8.a
16ee
8cc
8b
=28
[4a
16a
16g#
16e
16g#
=29
!First Ending
8a
8r
8ff
8ff
==30
!Second ending (for the entire piece)
2a
!Fine
==31
8.ee
16cc
8ff
8ff
=32
8.ee
16cc
8ff
8ee
=33
8.dd
16cc
8b
8cc
=34
8.a
16a
8b
8cc
=35
8.dd
16cc
8b
8cc
=36
8dd
8.r
16aa
16gg#
16aa
8ee
=37
8.ee
16aa
16gg#
16aa
8ee
=38
8.dd
16aa
16gg#
16gg#
8ee
=39
8.ee
16aa
16gg#
16aa
8ee
=40
[4dd
16dd]
16cc
16b
16cc
=41
4a
8b
8cc
=42
[4ee
16ee
16a
16b
16cc
=43
4a
8b
8cc
=44
8dd
8.r
16aa
16gg#
16aa
8ee
=45
8.ee
16aa
16gg#
16aa
16ee
=46
8.dd
16aa
8gg#
8ee
=47
8.ee
16aa
16gg#
16gg#
8ee
=48
8dd
8r
16r
16cc
8ff
8ff
=49
8.ee
16cc
8ff
8ee
=50
8.dd
16cc
8b
16cc
=51
8.a
16a
8b
8cc
=52
8.ee
16cc
8ff
8ee
=53
8.dd
16cc
8b
16cc
=54
8.a
16a
8b
8cc
=55
8.dd
16cc
8b
8cc
=56
8dd
8r
8cc
!D. (Coda Symbol) al Fine [play from measure 2-30]
==|!
*-
